cutejava-front/src/assets/icons/svg/bargain.svg

<?xml version="1.0" standalone="no"?><!DOCTYPE svg PUBLIC "-//W3C//DTD SVG 1.1//EN" "http://www.w3.org/Graphics/SVG/1.1/DTD/svg11.dtd"><svg t="1577087533544" class="icon" viewBox="0 0 1024 1024" version="1.1" xmlns="http://www.w3.org/2000/svg" p-id="2122" xmlns:xlink="http://www.w3.org/1999/xlink" width="200" height="200"><defs><style type="text/css"></style></defs><path d="M344.502857 655.36a18.651429 18.651429 0 0 1-13.165714-5.485714l-161.28-161.645715A17.188571 17.188571 0 0 1 164.571429 475.428571V146.285714a18.285714 18.285714 0 0 1 18.285714-18.285714h329.142857a17.188571 17.188571 0 0 1 12.8 5.485714l179.2 178.834286a18.651429 18.651429 0 0 1 5.485714 13.531429 19.382857 19.382857 0 0 1-6.217143 13.165714l-346.697142 311.588571a20.114286 20.114286 0 0 1-12.068572 4.754286zM201.142857 467.748571l143.725714 144.091429 319.634286-287.085714-160.182857-160.182857H201.142857z m201.142857-10.605714a91.428571 91.428571 0 1 1 91.428572-91.428571 91.428571 91.428571 0 0 1-91.428572 91.428571z m0-146.285714a54.857143 54.857143 0 1 0 54.857143 54.857143A54.857143 54.857143 0 0 0 402.285714 310.857143z" p-id="2123"></path><path d="M603.428571 950.857143a17.188571 17.188571 0 0 1-12.8-5.485714L365.714286 721.554286a17.92 17.92 0 0 1 0-24.868572l311.222857-347.062857a19.017143 19.017143 0 0 1 13.165714-5.851428 20.114286 20.114286 0 0 1 13.531429 5.12l241.371428 241.737142a17.554286 17.554286 0 0 1 0 25.6l-329.142857 329.142858a17.188571 17.188571 0 0 1-12.434286 5.485714z m-198.582857-242.834286l198.582857 198.582857 303.177143-303.177143-214.674285-215.04z" p-id="2124"></path><path d="M250.88 870.034286a18.285714 18.285714 0 0 1-12.8-5.12l-68.022857-68.388572a17.92 17.92 0 0 1-5.485714-13.165714 16.822857 16.822857 0 0 1 6.217142-13.165714L841.142857 169.325714a18.285714 18.285714 0 0 1 25.234286 0 18.651429 18.651429 0 0 1 0 24.868572L264.777143 864.182857a19.017143 19.017143 0 0 1-13.165714 5.851429z m-41.325714-85.577143l40.594285 40.96 360.594286-402.285714z" p-id="2125"></path></svg>

<svg class="icon" viewBox="0 0 1024 1024" xmlns="http://www.w3.org/2000/svg" width="200" height="200"><defs><style/></defs><path d="M344.503 655.36a18.651 18.651 0 0 1-13.166-5.486L170.057 488.23a17.189 17.189 0 0 1-5.486-12.8V146.286A18.286 18.286 0 0 1 182.857 128H512a17.189 17.189 0 0 1 12.8 5.486L704 312.32a18.651 18.651 0 0 1 5.486 13.531 19.383 19.383 0 0 1-6.217 13.166L356.57 650.606a20.114 20.114 0 0 1-12.068 4.754zm-143.36-187.611L344.869 611.84l319.634-287.086L504.32 164.571H201.143zm201.143-10.606a91.429 91.429 0 1 1 91.428-91.429 91.429 91.429 0 0 1-91.428 91.429zm0-146.286a54.857 54.857 0 1 0 54.857 54.857 54.857 54.857 0 0 0-54.857-54.857z"/><path d="M603.429 950.857a17.189 17.189 0 0 1-12.8-5.486L365.714 721.554a17.92 17.92 0 0 1 0-24.868l311.223-347.063a19.017 19.017 0 0 1 13.166-5.852 20.114 20.114 0 0 1 13.531 5.12L945.006 590.63a17.554 17.554 0 0 1 0 25.6L615.863 945.37a17.189 17.189 0 0 1-12.434 5.486zM404.846 708.023l198.583 198.583 303.177-303.177-214.675-215.04z"/><path d="M250.88 870.034a18.286 18.286 0 0 1-12.8-5.12l-68.023-68.388a17.92 17.92 0 0 1-5.486-13.166 16.823 16.823 0 0 1 6.218-13.166l670.354-600.868a18.286 18.286 0 0 1 25.234 0 18.651 18.651 0 0 1 0 24.868l-601.6 669.989a19.017 19.017 0 0 1-13.166 5.851zm-41.326-85.577l40.595 40.96 360.594-402.286z"/></svg>
